X:909
T:Reel 909
M:4/4
K:Gmaj
L:1/8
BA|G2BG AGEA|G2BG AGEF|G2BG AGEe|dcBA G2:|dd|e2dB ceBa|g2gd efdB|c2cA B2GB|AGAB c2BA|G2gf eded|Bdgd e2dB|cABc dBGB|AGFA G2|
